icons/unmerge-24.svg

<svg id="icons" xmlns="http://www.w3.org/2000/svg" viewBox="0 0 24 24"><defs><style>.cls-1{fill:none;}</style></defs><rect class="cls-1" width="24" height="24"/><path d="M20.35986,16.65918,23.207,19.50586l-2.84717,2.84766-.707-.707,1.66229-1.66265L13.29346,20,6.293,13H1V12H6.293l7-7,7.99939.00537L19.65283,3.36621l.707-.707L23.207,5.50586,20.35986,8.35352l-.707-.707L21.29358,6,13.707,5.99463,7.207,12.5l6.49951,6.51605L21.27094,19l-1.61811-1.63379Z"/></svg>

<svg xmlns="http://www.w3.org/2000/svg" viewBox="0 0 24 24"><path fill="none" d="M0 0h24v24H0z"/><path d="M20.36 16.66l2.847 2.846-2.847 2.848-.707-.707 1.662-1.663-8.022.016-7-7H1v-1h5.293l7-7 8 .005-1.64-1.639.707-.707 2.847 2.847-2.847 2.848-.707-.707L21.293 6l-7.586-.005-6.5 6.505 6.5 6.516L21.27 19l-1.618-1.634z"/></svg>
